X: 10
T: My Darling Asleep
R: jig
M: 6/8
L: 1/8
K: Dmaj
|e|:fdd cAA|BAG A2G| FAA def|gfg eag|
|fdd cAA|BAG A2G| FAA def|1gec d2e:|2gec d2 A||
|FAA ABA| FAA BAG| FAA def|gfg eag|
|fdd cAA| BAG A2G|FAA def|1gec d2A:|2gec d3||


Tune 76	Setting 12562

